X:436
T: "Elisabeth"
N: Z1116
O: Europa, Mitteleuropa, Deutschland, Hessen
R: Romanze, Ballade, geistlich
M: 2/4
L: 1/16
K: A
A2 | A2=G2=F2E2 | D2C2D2
E2 | =F2E2^F2G2 | A2A2z2
A2 | A2G2F2G2 | A2B2=c2
d2 | e2d2=c2e2 | d2=c2z2
B2 | d2=c2B2e2 | d2=c2B2
c2 | d2=c2B2dd | =c2B2A2
A2 | B2A2d2=cc | B4A2

